X:1
T:Psalm
T:Knut Håkanson (1887-1929)
T:Herre signe du och råde
T:Op 32 nr 10
%%score { ( 1 2 ) | ( 3 4 ) }
L:1/8
Q:1/4=120
M:4/2
K:F
V:1 treble nm="Vocals"
V:2 treble 
V:3 bass 
V:4 bass 
V:1
 (A2 Bc)"^Instrument change" d4 c4 (dA B2) |"^Instrument change" G4 ^F4 G4 (G2 !fermata!c2) | %2
"^Instrument change" (c2"^Instrument change" A2) B4 (A2 G2) F4 | %3
"^Instrument change" (G2"^Instrument change" F2) (E2 G2) F4 z4 :| %4
"^Instrument change" (G2 AB)"^Instrument change" (A2 Bc d4) (cA B2) | %5
"^Instrument change" G4"^Instrument change" ^F4 (Gc- !fermata!c4) z2 | %6
"^Instrument change" (B2"^Instrument change" d2) (c2 _e2) (dABc) d4 | %7
"^Instrument change" (c2 B2)"^Instrument change" (A2 cA) G4 z4 | %8
"^Instrument change" (A2"^Instrument change" Bc) d4 c4 (dA B2) | %9
"^Instrument change" G4 ^F4 G4 (Gc- !fermata!c2)"^Instrument change" | %10
"^Instrument change" (c2"^Instrument change" A2) B4 (A2 G2) F4 | %11
"^Instrument change" (G>"^Instrument change"A B2) (A2 F2) (G2 E2) F4 |] %12
V:2
 F4 F4 G4 ^F2 D2 | D2"^Instrument change" _E2 D4 D4 !fermata!C4 | F4 F4 !courtesy!=E4 (F2 E2) | %3
w: Her- re sig- ne *|du * och rå- de|Och be- va- re *|
w: Her- re, dit an- *|sikt * i nå- de|Ly- se all- tid *|
 D4 C4 C4 z4 :| (E2 FG) F4 F4 (F_EDC) | (B,2 C2) D4 !fermata!_E6 z2 | D4 G4 ^F4 (GDE=F) | %7
w: nu oss väl.||||
w: för vår själ.|Her- * * re Gud, dig * * *|till * oss vänd|Och din frid oss * * *|
 E4 (^F2 EF) G4 z4 | F4 (FE D2) (E2 ^F2) G4 | _E4 D4 D4 !fermata!C4 | F4 F4 E4 F4 | %11
w: ||||
w: al- lom * * sänd.|O Gud * * Fa- * der|Son och An- de,|Dig ske pris i|
 F4 (E2 F2) (D2 C2) C4 |] %12
w: |
w: al- lo * lan- * de!|
V:3
 C4 B,4 (A,2 G,2) (A,2 ^F,2) | (G,2 C2) (A,2 B,C) (B,2 A,2) !fermata!G,4 | %2
 (A,2 C2) (B,2 D2) (C2 B,2) A,4 | (B,2 A,2) (G,2 B,2) A,4 z4 :| C4 C2 B,A, A,4 A,2 G,2 | %5
 G,4 (A,2 B,2) !fermata!G,6 z2 | (B,2 A,2) (G,2 C2) A,4 (D2 G,2) | G,4 (D2 C2) B,4 z4 | %8
 C4 B,4 C4 (B,C D2) | (C2 B,2) (A,2 B,C) (B,2 A,2) !fermata!G,4 | (A,2 C2) (F,2 G,2) A,4 A,4 | %11
 D4 (C2 A,2) (B,2 G,2) A,4 |] %12
V:4
 F,4 (B,,2 C,D,) _E,4 (D,2 C,2) | (B,,2 C,2) D,4 (G,2 F,2) !fermata!!courtesy!=E,4 | %2
 (F,2 _E,2) (D,2 B,,2) C,4 (D,2 C,2) | B,,4 C,4 F,,4 z4 :| C,4 F,4 D,2 E,2 F,2 G,2 | %5
 _E,4 D,4 !fermata!C,6 z2 | (G,2 F,2) (_E,2 C,2) D,4 =B,,4 | C,4 D,4 G,4 z4 | %8
 (F,2 G,A,) B,4 A,4 G,4 | C,4 D,4 (G,2 F,2) !fermata!!courtesy!=E,4 | %10
 (F,2 !courtesy!=E,2) D,4 ^C,4 (D,2 =C,2) | (B,,>A,, G,,2) (A,,2 D,2) (B,,2 C,2) F,,4 |] %12

